src/icons/outline/symbols/label.svg

<svg width="24" height="24" viewBox="0 0 24 24" fill="none" xmlns="http://www.w3.org/2000/svg">
<g clip-path="url(#clip0_4191_763)">
<path fill-rule="evenodd" clip-rule="evenodd" d="M6.87451 8.8717C6.60785 8.8717 6.35007 8.8184 6.11007 8.72068C5.87007 8.62295 5.64784 8.47193 5.46118 8.28536C5.27451 8.0988 5.13229 7.8767 5.02562 7.63683C4.92785 7.39697 4.87451 7.13933 4.87451 6.87281C4.87451 6.6063 4.92785 6.34866 5.02562 6.10879C5.1234 5.86893 5.27451 5.64683 5.46118 5.46027C5.64784 5.2737 5.87007 5.12268 6.11007 5.02495C6.59896 4.82062 7.15007 4.82062 7.63896 5.02495C7.87896 5.12268 8.10118 5.2737 8.28785 5.46027C8.47451 5.64683 8.62562 5.86893 8.7234 6.10879C8.82118 6.34866 8.87451 6.6063 8.87451 6.87281C8.87451 7.13933 8.82118 7.39697 8.7234 7.63683C8.62562 7.8767 8.47451 8.0988 8.28785 8.28536C8.10118 8.47193 7.87896 8.61407 7.63896 8.72068C7.39896 8.8184 7.14118 8.8717 6.87451 8.8717ZM6.87451 6.20652C6.78562 6.20652 6.69673 6.22429 6.61673 6.25982C6.53673 6.29536 6.46562 6.33978 6.4034 6.40196C6.34118 6.46415 6.29673 6.53522 6.26118 6.61518C6.22562 6.69514 6.20785 6.78397 6.20785 6.87281C6.20785 6.96165 6.22562 7.05049 6.26118 7.13045C6.29673 7.2104 6.34118 7.28148 6.4034 7.34366C6.46562 7.40585 6.53673 7.45916 6.61673 7.48581C6.78562 7.55688 6.97229 7.55688 7.1234 7.48581C7.2034 7.45027 7.2834 7.40585 7.34562 7.34366C7.40785 7.28148 7.45229 7.2104 7.48785 7.13045C7.5234 7.05049 7.54118 6.96165 7.54118 6.87281C7.54118 6.78397 7.5234 6.69514 7.48785 6.61518C7.45229 6.53522 7.40785 6.45527 7.34562 6.39308C7.2834 6.33089 7.21229 6.28647 7.13229 6.25094C7.05229 6.2154 6.9634 6.19763 6.87451 6.19763V6.20652Z" fill="#3C3B44"/>
<path fill-rule="evenodd" clip-rule="evenodd" d="M14.0566 23C13.9443 22.9997 13.8232 22.9901 13.7112 22.9621C13.4554 22.8958 13.2281 22.7632 13.0481 22.5833L2.0419 11.5691C1.3694 10.8967 1 10.0065 1 9.05941V3.13087C1 2.57211 1.22732 2.02282 1.62514 1.62505C2.02296 1.22729 2.57232 1 3.13116 1H9.06051C10.0077 1 10.898 1.36935 11.5705 2.04176L22.5863 13.056C22.7662 13.2359 22.8988 13.4632 22.9557 13.7094C23.022 13.9651 23.0125 14.2208 22.9367 14.4671C22.8609 14.7133 22.7189 14.9311 22.5294 15.1111C22.34 15.2815 22.1127 15.3952 21.8569 15.452L16.5148 16.5222L15.4445 21.8635C15.3972 22.1192 15.274 22.3465 15.1035 22.5359C14.933 22.7254 14.7057 22.8674 14.4594 22.9432C14.3282 22.9807 14.197 22.9996 14.0566 23ZM3.13116 2.42058C2.94172 2.42058 2.76176 2.49634 2.62915 2.62893C2.49655 2.76152 2.42077 2.94146 2.42077 3.13087V9.05941C2.42077 9.62764 2.63862 10.1675 3.04591 10.5652L14.0616 21.5794L15.2267 15.774C15.2835 15.4899 15.5013 15.2721 15.7855 15.2152L21.5917 14.0598L10.5665 3.04563C10.1687 2.64787 9.61935 2.42058 9.06051 2.42058H3.13116Z" fill="#3C3B44"/>
<path d="M14.0566 23L14.0616 23H14.0522L14.0566 23Z" fill="#3C3B44"/>
</g>
<defs>
<clipPath id="clip0_4191_763">
<rect width="24" height="24" fill="white"/>
</clipPath>
</defs>
</svg>

<svg xmlns="http://www.w3.org/2000/svg" width="24" height="24" fill="none" viewBox="0 0 24 24"><g fill="currentColor" clip-path="url(#a)"><path fill-rule="evenodd" d="M6.875 8.872a2 2 0 0 1-1.413-.586 2.1 2.1 0 0 1-.436-.65 2.02 2.02 0 0 1 0-1.527 2 2 0 0 1 1.085-1.084 1.98 1.98 0 0 1 2.177.435 2 2 0 0 1 .587 1.413 2 2 0 0 1-.587 1.413 2.1 2.1 0 0 1-.649.435c-.24.097-.498.15-.764.15m0-2.665a.7.7 0 0 0-.471.195.7.7 0 0 0-.196.47q0 .136.053.258a.7.7 0 0 0 .142.214.6.6 0 0 0 .214.142.63.63 0 0 0 .506 0 .7.7 0 0 0 .223-.142.7.7 0 0 0 .195-.471.73.73 0 0 0-.196-.48.7.7 0 0 0-.47-.195z" clip-rule="evenodd"/><path fill-rule="evenodd" d="M14.057 23a1.5 1.5 0 0 1-.346-.038 1.45 1.45 0 0 1-.663-.379L2.042 11.57A3.53 3.53 0 0 1 1 9.06V3.131c0-.559.227-1.108.625-1.506A2.15 2.15 0 0 1 3.131 1h5.93c.947 0 1.837.37 2.51 1.042l11.015 11.014c.18.18.313.407.37.653.066.256.056.512-.02.758a1.5 1.5 0 0 1-.407.644c-.189.17-.416.284-.672.341l-5.342 1.07-1.07 5.342a1.4 1.4 0 0 1-.341.672c-.171.19-.398.331-.645.407a1.5 1.5 0 0 1-.402.057M3.13 2.42a.71.71 0 0 0-.71.71v5.93c0 .568.218 1.108.625 1.505L14.062 21.58l1.165-5.805a.71.71 0 0 1 .559-.559l5.806-1.155L10.567 3.046A2.15 2.15 0 0 0 9.06 2.42z" clip-rule="evenodd"/><path d="M14.057 23h.005-.01z"/></g><defs><clipPath id="a"><path fill="currentColor" d="M0 0h24v24H0z"/></clipPath></defs></svg>
